images_elementary_svg/cmd/lc_backgroundcolor.svg

<?xml version="1.0" encoding="UTF-8" standalone="no"?>
<svg
   xmlns:dc="http://purl.org/dc/elements/1.1/"
   xmlns:cc="http://creativecommons.org/ns#"
   xmlns:rdf="http://www.w3.org/1999/02/22-rdf-syntax-ns#"
   xmlns:svg="http://www.w3.org/2000/svg"
   xmlns="http://www.w3.org/2000/svg"
   xmlns:xlink="http://www.w3.org/1999/xlink"
   xmlns:sodipodi="http://sodipodi.sourceforge.net/DTD/sodipodi-0.dtd"
   xmlns:inkscape="http://www.inkscape.org/namespaces/inkscape"
   version="1.1"
   width="24"
   height="24"
   id="svg4007"
   sodipodi:docname="lc_backgroundcolor.svg"
   inkscape:version="0.92.3 (unknown)"
   inkscape:export-filename="/home/rizmut/Dokumen/Rizmut/Github/libreoffice-style-elementary/images_elementary/cmd/lc_backgroundcolor.png"
   inkscape:export-xdpi="96"
   inkscape:export-ydpi="96">
  <sodipodi:namedview
     pagecolor="#ffffff"
     bordercolor="#666666"
     borderopacity="1"
     objecttolerance="10"
     gridtolerance="10"
     guidetolerance="10"
     inkscape:pageopacity="0"
     inkscape:pageshadow="2"
     inkscape:window-width="1366"
     inkscape:window-height="706"
     id="namedview32"
     showgrid="false"
     inkscape:zoom="9.8333333"
     inkscape:cx="12"
     inkscape:cy="12"
     inkscape:window-x="0"
     inkscape:window-y="0"
     inkscape:window-maximized="1"
     inkscape:current-layer="svg4007" />
  <defs
     id="defs4009">
    <linearGradient
       id="linearGradient964">
      <stop
         offset="0"
         style="stop-color:#ffffff;stop-opacity:1"
         id="stop956" />
      <stop
         offset="0.40498418"
         style="stop-color:#ffffff;stop-opacity:0.23529412"
         id="stop958" />
      <stop
         offset="0.74407381"
         style="stop-color:#ffffff;stop-opacity:0.15686275"
         id="stop960" />
      <stop
         offset="1"
         style="stop-color:#ffffff;stop-opacity:0.39215687"
         id="stop962" />
    </linearGradient>
    <linearGradient
       y2="27.652287"
       x2="104.74687"
       y1="27.165281"
       x1="80.82019"
       spreadMethod="reflect"
       gradientTransform="matrix(-0.222635,-0.373813,0.385616,-0.215821,26.90433,54.12488)"
       gradientUnits="userSpaceOnUse"
       id="linearGradient15986"
       xlink:href="#linearGradient14411" />
    <linearGradient
       id="linearGradient14411">
      <stop
         style="stop-color:#abacae;stop-opacity:1"
         offset="0"
         id="stop14413" />
      <stop
         id="stop14415"
         offset="0.11148844"
         style="stop-color:#7e8087;stop-opacity:1" />
      <stop
         style="stop-color:#fafafa;stop-opacity:1"
         offset="1"
         id="stop14417" />
    </linearGradient>
    <radialGradient
       gradientTransform="matrix(0.50706084,0,0,0.50357398,-7.1628404,3.0170551)"
       r="4.3006992"
       fy="21.21833"
       fx="24.660349"
       cy="21.21833"
       cx="24.660349"
       gradientUnits="userSpaceOnUse"
       id="radialGradient15988"
       xlink:href="#linearGradient8059" />
    <linearGradient
       id="linearGradient8059">
      <stop
         style="stop-color:#ffffff;stop-opacity:1.0000000;"
         offset="0.0000000"
         id="stop8061" />
      <stop
         style="stop-color:#9d9d9d;stop-opacity:1"
         offset="1.0000000"
         id="stop8063" />
    </linearGradient>
    <linearGradient
       y2="240.80917"
       x2="195.83525"
       y1="235.83804"
       x1="194.15193"
       gradientTransform="rotate(-3.5148819,-3613.4723,3223.3951)"
       gradientUnits="userSpaceOnUse"
       id="linearGradient15993"
       xlink:href="#linearGradient17889" />
    <linearGradient
       id="linearGradient17889">
      <stop
         id="stop17891"
         offset="0"
         style="stop-color:#cfd1d3;stop-opacity:1;" />
      <stop
         id="stop17893"
         offset="1"
         style="stop-color:#cfd1d3;stop-opacity:0;" />
    </linearGradient>
    <linearGradient
       gradientUnits="userSpaceOnUse"
       y2="15.044191"
       x2="16.015562"
       y1="1.8942976"
       x1="16.015562"
       id="linearGradient954"
       xlink:href="#linearGradient964" />
  </defs>
  <metadata
     id="metadata4012">
    <rdf:RDF>
      <cc:Work
         rdf:about="">
        <dc:format>image/svg+xml</dc:format>
        <dc:type
           rdf:resource="http://purl.org/dc/dcmitype/StillImage" />
        <dc:title></dc:title>
      </cc:Work>
    </rdf:RDF>
  </metadata>
  <path
     style="opacity:1;fill:#555753;fill-opacity:1;stroke:#555761;stroke-width:1px;stroke-opacity:1"
     d="m 4.14242,6.88559 c -0.688,0.27691 -1.6253,2.84407 0.8376,6.99851 2.325,3.92206 4.7067,4.73312 5.342,4.34396 0.6074,-0.37206 0.849,-3.11964 -1.3109,-6.51492 -1.7488,-2.7491 -4.1807,-5.10446 -4.8687,-4.82755 z"
     id="path16981" />
  <path
     style="opacity:1;fill:url(#linearGradient15986);fill-opacity:1;fill-rule:evenodd;stroke:#555761;stroke-width:1;stroke-linecap:butt;stroke-linejoin:round;stroke-miterlimit:4;stroke-dasharray:none;stroke-opacity:1"
     d="m 10.36243,18.15507 11.05542,-6.3172 C 24.67809,7.98811 19.22865,-0.09026 15.15193,0.6431 L 4.07029,6.83175 c 4.11624,2.00584 6.45639,7.13135 6.29214,11.32332 z"
     id="path16943" />
  <path
     style="opacity:1;fill:none;stroke:url(#linearGradient954);stroke-width:0.93590623;stroke-linecap:butt;stroke-linejoin:miter;stroke-miterlimit:4;stroke-dasharray:none;stroke-opacity:1"
     d="m 11.55125,16.33532 9.23016,-5.10951 C 23.40725,8.10694 18.55288,0.49386 15.1256,1.58411 L 5.8715,6.84242 c 2.60448,1.43538 5.38181,6.13656 5.67975,9.4929 z"
     id="path16947" />
  <path
     style="opacity:1;fill:none;stroke:#555761;stroke-width:1.00000036;stroke-linecap:round;stroke-linejoin:miter;stroke-miterlimit:4;stroke-dasharray:none;stroke-opacity:1"
     d="M 11.50092,7.19685 V 2.84888 c 0,-3.18436 -5,-3.11978 -5,0.099 v 2.44781"
     id="path16949" />
  <ellipse
     ry="1.9139332"
     rx="1.9271857"
     style="opacity:1;fill:url(#radialGradient15988);fill-opacity:1;fill-rule:evenodd;stroke:#555761;stroke-width:1.04563749;stroke-linecap:round;stroke-linejoin:miter;stroke-miterlimit:4;stroke-dasharray:none;stroke-dashoffset:0;stroke-opacity:1"
     id="path16945"
     transform="matrix(0.86839481,-0.49587343,0.50413844,0.86362286,0,0)"
     cx="5.3414569"
     cy="13.702054" />
  <path
     style="opacity:1;fill:#fcaf3e;fill-opacity:1;fill-rule:evenodd;stroke:#ce5c00;stroke-width:1.00000036;stroke-linecap:butt;stroke-linejoin:round;stroke-miterlimit:4;stroke-dasharray:none;stroke-opacity:1"
     d="m 5.24851,19.48359 c -2.85243,0 -3.74759,0.85123 -3.74759,1.96852 0,0.80744 0.97138,2.02054 5.21476,2.02054 h 6.99179 c 3.57873,0 7.31984,-0.61499 7.31984,-2.0132 0,-1.35279 -3.84445,-1.98318 -6.92624,-1.99083 l -1.20865,-0.003 -1.38584,0.021 C 9.15451,19.03397 9.41855,16.67015 8.80188,14.76824 7.56117,15.59874 7.46006,16.6621 6.94453,18.18451 6.71697,18.73346 5.86582,19.49565 5.24851,19.48359 Z"
     id="path16941" />
  <path
     id="path17109"
     d="M 4.2275,8.02426 C 4.03908,8.09866 3.91419,8.27945 3.91122,8.48201 3.73283,10.95911 5.12587,13.60148 6.80119,14.75413 7.0271,14.91317 7.33917,14.85896 7.49821,14.63305 7.65724,14.40713 7.60303,14.09507 7.37712,13.93603 6.11172,13.06542 4.77181,10.56155 4.91701,8.54546 4.93831,8.36873 4.86411,8.19398 4.7221,8.08663 4.58009,7.97928 4.39171,7.95553 4.2275,8.02423 Z"
     style="font-style:normal;font-variant:normal;font-weight:normal;font-stretch:normal;font-size:medium;line-height:normal;font-family:'Bitstream Vera Sans';-inkscape-font-specification:'Bitstream Vera Sans';text-indent:0;text-align:start;text-decoration:none;text-decoration-line:none;letter-spacing:normal;word-spacing:normal;text-transform:none;writing-mode:lr-tb;direction:ltr;text-anchor:start;display:inline;overflow:visible;visibility:visible;opacity:1;fill:url(#linearGradient15993);fill-opacity:1;stroke:none;stroke-width:1px;marker:none;enable-background:accumulate" />
  <circle
     style="display:inline;overflow:visible;visibility:visible;opacity:1;fill:#ffffff;fill-opacity:1;fill-rule:nonzero;stroke:none;stroke-width:0.25259021;marker:none"
     id="path16951"
     transform="rotate(-90)"
     cx="-20.711163"
     cy="3.4740286"
     r="0.94721323" />
</svg>

<svg xmlns="http://www.w3.org/2000/svg" xmlns:xlink="http://www.w3.org/1999/xlink" width="24" height="24"><defs><linearGradient id="d"><stop offset="0" stop-color="#fff"/><stop offset=".405" stop-color="#fff" stop-opacity=".235"/><stop offset=".744" stop-color="#fff" stop-opacity=".157"/><stop offset="1" stop-color="#fff" stop-opacity=".392"/></linearGradient><linearGradient y2="27.652" x2="104.747" y1="27.165" x1="80.82" spreadMethod="reflect" gradientTransform="matrix(-.22263 -.3738 .38562 -.21582 26.904 54.125)" gradientUnits="userSpaceOnUse" id="e" xlink:href="#a"/><linearGradient id="a"><stop offset="0" stop-color="#abacae"/><stop offset=".111" stop-color="#7e8087"/><stop offset="1" stop-color="#fafafa"/></linearGradient><radialGradient gradientTransform="matrix(.50706 0 0 .50357 -7.163 3.017)" r="4.301" fy="21.218" fx="24.66" cy="21.218" cx="24.66" gradientUnits="userSpaceOnUse" id="g" xlink:href="#b"/><linearGradient id="b"><stop offset="0" stop-color="#fff"/><stop offset="1" stop-color="#9d9d9d"/></linearGradient><linearGradient y2="240.809" x2="195.835" y1="235.838" x1="194.152" gradientTransform="rotate(-3.515 -3613.472 3223.395)" gradientUnits="userSpaceOnUse" id="h" xlink:href="#c"/><linearGradient id="c"><stop offset="0" stop-color="#cfd1d3"/><stop offset="1" stop-color="#cfd1d3" stop-opacity="0"/></linearGradient><linearGradient gradientUnits="userSpaceOnUse" y2="15.044" x2="16.016" y1="1.894" x1="16.016" id="f" xlink:href="#d"/></defs><path d="M4.142 6.886c-.688.276-1.625 2.844.838 6.998 2.325 3.922 4.707 4.733 5.342 4.344.607-.372.85-3.12-1.31-6.515C7.26 8.963 4.83 6.61 4.14 6.886z" fill="#555753" stroke="#555761"/><path d="M10.362 18.155l11.056-6.317c3.26-3.85-2.19-11.928-6.266-11.195L4.07 6.833c4.117 2.005 6.457 7.13 6.292 11.322z" fill="url(#e)" fill-rule="evenodd" stroke="#555761" stroke-linejoin="round"/><path d="M11.55 16.335l9.23-5.11c2.627-3.118-2.227-10.73-5.654-9.64L5.87 6.84c2.606 1.436 5.383 6.137 5.68 9.493z" fill="none" stroke="url(#f)" stroke-width=".936"/><path d="M11.5 7.197V2.85c0-3.185-5-3.12-5 .098v2.448" fill="none" stroke="#555761" stroke-linecap="round"/><ellipse ry="1.914" rx="1.927" transform="matrix(.8684 -.49587 .50414 .86362 0 0)" cx="5.341" cy="13.702" fill="url(#g)" fill-rule="evenodd" stroke="#555761" stroke-width="1.046" stroke-linecap="round"/><path d="M5.25 19.484c-2.854 0-3.75.85-3.75 1.968 0 .808.972 2.02 5.216 2.02h6.99c3.58 0 7.32-.614 7.32-2.013 0-1.353-3.843-1.984-6.925-1.99l-1.208-.004-1.385.02c-2.352-.452-2.088-2.816-2.705-4.718-1.24.83-1.342 1.894-1.857 3.417-.228.548-1.08 1.31-1.696 1.3z" fill="#fcaf3e" fill-rule="evenodd" stroke="#ce5c00" stroke-linejoin="round"/><path d="M4.228 8.024c-.19.075-.314.255-.317.458-.177 2.477 1.216 5.12 2.89 6.272.227.16.54.105.698-.12.16-.227.105-.54-.12-.698-1.266-.87-2.606-3.374-2.46-5.39.02-.177-.054-.352-.196-.46-.142-.107-.33-.13-.495-.062z" style="line-height:normal;-inkscape-font-specification:'Bitstream Vera Sans';text-indent:0;text-align:start;text-decoration-line:none;text-transform:none" font-family="Bitstream Vera Sans" overflow="visible" fill="url(#h)"/><circle transform="rotate(-90)" cx="-20.711" cy="3.474" r=".947" overflow="visible" fill="#fff"/></svg>
